app/images/icon_cake.svg

<svg width="63" height="63" viewBox="0 0 63 63" fill="none" xmlns="http://www.w3.org/2000/svg">
<g clip-path="url(#clip0)">
<path d="M62.9999 33.6003V29.4003C62.9999 28.8204 62.5297 28.3503 61.9499 28.3503H48.8249V7.35035C48.8249 6.77049 48.3548 6.30035 47.7749 6.30035H36.6334C38.0509 4.92144 38.8504 3.0279 38.8499 1.05036C38.8499 0.470503 38.3798 0.000366211 37.7999 0.000366211C35.216 0.00443495 32.824 1.3651 31.4999 3.58401C30.1759 1.3651 27.7839 0.00443495 25.1999 0.000366211C24.6201 0.000366211 24.1499 0.470503 24.1499 1.05036C24.1494 3.0279 24.949 4.92144 26.3665 6.30035H15.225C14.6451 6.30035 14.175 6.77049 14.175 7.35035V28.3503H1.05C0.470136 28.3503 0 28.8204 0 29.4003V33.6003C0 34.1802 0.470136 34.6503 1.05 34.6503H35.5298L29.2298 36.7503H13.65C13.3715 36.7503 13.1045 36.8611 12.9076 37.0579L8.39998 41.5656L7.04233 40.2079C6.63231 39.798 5.96766 39.798 5.55764 40.2079L0.307649 45.4579C-0.102243 45.8679 -0.102243 46.5326 0.307649 46.9426L16.0576 62.6926C16.4676 63.1025 17.1323 63.1025 17.5423 62.6926L22.7923 57.4426C23.2022 57.0326 23.2022 56.3679 22.7923 55.9579L22.6191 55.7847L28.6859 51.4503H49.3499C49.6127 51.4503 49.866 51.3517 50.0597 51.1741L61.4774 40.7088C63.1991 39.1329 63.499 36.5303 62.1809 34.6041C62.6551 34.5024 62.9954 34.0853 62.9999 33.6003ZM36.6155 2.23476C36.1592 4.18605 34.6356 5.7096 32.6843 6.16595C33.1407 4.21466 34.6642 2.69112 36.6155 2.23476ZM30.3155 6.16595C28.3642 5.7096 26.8407 4.18605 26.3843 2.23476C28.3356 2.69112 29.8592 4.21466 30.3155 6.16595ZM16.275 8.40035H46.7249V28.3503C21.937 28.3503 34.4298 28.3503 16.275 28.3503V8.40035ZM2.1 32.5503V30.4503H60.8999V32.5503H2.1ZM44.8778 35.2535C44.7657 35.0418 44.6358 34.84 44.4895 34.6503H53.9384L46.8509 40.9503H43.1245C45.1818 39.8613 45.9668 37.3107 44.8778 35.2535ZM16.8 60.4655L2.53469 46.2003L6.29999 42.435L20.5653 56.7002L16.8 60.4655ZM60.0599 39.1652L48.9414 49.3501H28.3499C28.1311 49.3501 27.918 49.4184 27.7399 49.5454L21.1134 54.2788L9.88468 43.0501L14.0847 38.8502H29.3999C29.5127 38.8503 29.6248 38.8322 29.7317 38.7966L40.4732 35.2161C41.5837 34.8435 42.7861 35.4417 43.1587 36.5522C43.5313 37.6627 42.9331 38.8651 41.8226 39.2377C41.7827 39.2511 41.7424 39.2633 41.7017 39.2744L35.5592 40.9501H32.5499V43.0501H47.2499C47.5069 43.0503 47.755 42.956 47.9471 42.7855L56.3628 35.3054C56.8374 34.8831 57.4506 34.6499 58.0859 34.6502H58.3032C59.7367 34.645 60.903 35.8029 60.9081 37.2363C60.9108 37.9704 60.6026 38.6711 60.0599 39.1652Z" fill="#02133C"/>
<path d="M62.9999 33.6003V29.4003C62.9999 28.8204 62.5297 28.3503 61.9499 28.3503H48.8249V7.35035C48.8249 6.77049 48.3548 6.30035 47.7749 6.30035H36.6334C38.0509 4.92144 38.8504 3.0279 38.8499 1.05036C38.8499 0.470503 38.3798 0.000366211 37.7999 0.000366211C35.216 0.00443495 32.824 1.3651 31.4999 3.58401C30.1759 1.3651 27.7839 0.00443495 25.1999 0.000366211C24.6201 0.000366211 24.1499 0.470503 24.1499 1.05036C24.1494 3.0279 24.949 4.92144 26.3665 6.30035H15.225C14.6451 6.30035 14.175 6.77049 14.175 7.35035V28.3503H1.05C0.470136 28.3503 0 28.8204 0 29.4003V33.6003C0 34.1802 0.470136 34.6503 1.05 34.6503C62.1809 34.6041 62.1809 34.6041 62.1809 34.6041C62.6551 34.5024 62.9954 34.0853 62.9999 33.6003ZM36.6155 2.23476C36.1592 4.18605 34.6356 5.7096 32.6843 6.16595C33.1407 4.21466 34.6642 2.69112 36.6155 2.23476ZM30.3155 6.16595C28.3642 5.7096 26.8407 4.18605 26.3843 2.23476C28.3356 2.69112 29.8592 4.21466 30.3155 6.16595ZM16.275 8.40035H46.7249V28.3503C21.937 28.3503 34.4298 28.3503 16.275 28.3503V8.40035Z" fill="#C40B0B"/>
<path d="M54.0751 4.2002H51.9751V6.30019H54.0751V4.2002Z" fill="#C40B0B"/>
<path d="M56.1747 2.10022H54.0747V4.20021H56.1747V2.10022Z" fill="#C40B0B"/>
<path d="M58.2748 4.2002H56.1748V6.30019H58.2748V4.2002Z" fill="#C40B0B"/>
<path d="M56.1747 6.30042H54.0747V8.40042H56.1747V6.30042Z" fill="#C40B0B"/>
<path d="M63.0001 1.05005H60.9001V3.15005H63.0001V1.05005Z" fill="#C40B0B"/>
<path d="M54.6 12.6005H52.5V14.7005H54.6V12.6005Z" fill="#C40B0B"/>
<path d="M8.92519 11.5502H6.8252V13.6502H8.92519V11.5502Z" fill="#C40B0B"/>
<path d="M8.92519 15.7504H6.8252V17.8504H8.92519V15.7504Z" fill="#C40B0B"/>
<path d="M11.0253 13.6501H8.92529V15.7501H11.0253V13.6501Z" fill="#C40B0B"/>
<path d="M6.8246 13.6501H4.72461V15.7501H6.8246V13.6501Z" fill="#C40B0B"/>
<path d="M2.1 6.30042H0V8.40042H2.1V6.30042Z" fill="#C40B0B"/>
<path d="M11.5499 1.05005H9.44995V3.15005H11.5499V1.05005Z" fill="#C40B0B"/>
<path d="M31.4998 28.875L21.2522 16.1538H41.7474L31.4998 28.875Z" fill="#C40B0B"/>
<path d="M41.7474 16.1538H21.2522L24.7859 10.5H38.2137L41.7474 16.1538Z" fill="#E30B0B"/>
<path d="M36.147 16.1538L38.2128 10.5H24.7849L26.8507 16.1538H36.147Z" fill="#C40B0B"/>
<path d="M36.0937 16.1538L31.5 10.5L26.9062 16.1538H36.0937Z" fill="#FE6F6F"/>
<path d="M26.8508 16.1538L31.499 28.875L36.1472 16.1538H26.8508Z" fill="#CB465F"/>
</g>
<defs>
<clipPath id="clip0">
<rect width="63" height="63" fill="white"/>
</clipPath>
</defs>
</svg>

<svg width="63" height="63" fill="none" xmlns="http://www.w3.org/2000/svg"><g clip-path="url(#clip0)"><path d="M63 33.6v-4.2c0-.58-.47-1.05-1.05-1.05H48.825v-21c0-.58-.47-1.05-1.05-1.05H36.633a7.322 7.322 0 002.217-5.25C38.85.47 38.38 0 37.8 0a7.35 7.35 0 00-6.3 3.584A7.35 7.35 0 0025.2 0c-.58 0-1.05.47-1.05 1.05 0 1.978.799 3.871 2.216 5.25H15.225c-.58 0-1.05.47-1.05 1.05v21H1.05c-.58 0-1.05.47-1.05 1.05v4.2c0 .58.47 1.05 1.05 1.05h34.48l-6.3 2.1H13.65c-.279 0-.546.111-.742.308L8.4 41.566l-1.358-1.358a1.05 1.05 0 00-1.484 0l-5.25 5.25a1.05 1.05 0 000 1.485l15.75 15.75c.41.41 1.074.41 1.484 0l5.25-5.25a1.05 1.05 0 000-1.485l-.173-.173 6.067-4.335H49.35c.263 0 .516-.098.71-.276L61.477 40.71a4.687 4.687 0 00.704-6.105c.474-.102.814-.519.819-1.004zM36.615 2.235a5.27 5.27 0 01-3.93 3.93 5.27 5.27 0 013.93-3.93zm-6.3 3.93a5.27 5.27 0 01-3.93-3.93 5.27 5.27 0 013.93 3.93zM16.276 8.4h30.45v19.95h-30.45V8.4zM2.1 32.55v-2.1h58.8v2.1H2.1zm42.778 2.704a4.226 4.226 0 00-.389-.604h9.45l-7.088 6.3h-3.727a4.215 4.215 0 001.754-5.697zM16.8 60.466L2.535 46.2 6.3 42.435 20.565 56.7 16.8 60.465zm43.26-21.3L48.94 49.35H28.35a1.05 1.05 0 00-.61.195l-6.627 4.734L9.885 43.05l4.2-4.2H29.4c.113 0 .225-.018.332-.053l10.741-3.58a2.121 2.121 0 111.229 4.057l-6.143 1.676h-3.01v2.1h14.7c.258 0 .506-.094.698-.264l8.416-7.48a2.59 2.59 0 011.723-.656h.217a2.595 2.595 0 011.757 4.515z" fill="#02133C"/><path d="M63 33.6v-4.2c0-.58-.47-1.05-1.05-1.05H48.825v-21c0-.58-.47-1.05-1.05-1.05H36.633a7.322 7.322 0 002.217-5.25C38.85.47 38.38 0 37.8 0a7.35 7.35 0 00-6.3 3.584A7.35 7.35 0 0025.2 0c-.58 0-1.05.47-1.05 1.05 0 1.978.799 3.871 2.216 5.25H15.225c-.58 0-1.05.47-1.05 1.05v21H1.05c-.58 0-1.05.47-1.05 1.05v4.2c0 .58.47 1.05 1.05 1.05l61.13-.046c.475-.102.815-.519.82-1.004zM36.615 2.235a5.27 5.27 0 01-3.93 3.93 5.27 5.27 0 013.93-3.93zm-6.3 3.93a5.27 5.27 0 01-3.93-3.93 5.27 5.27 0 013.93 3.93zM16.276 8.4h30.45v19.95h-30.45V8.4zm37.799-4.2h-2.1v2.1h2.1V4.2z" fill="#C40B0B"/><path d="M56.175 2.1h-2.1v2.1h2.1V2.1zm2.1 2.1h-2.1v2.1h2.1V4.2zm-2.1 2.1h-2.1v2.1h2.1V6.3zM63 1.05h-2.1v2.1H63v-2.1zM54.6 12.6h-2.1v2.1h2.1v-2.1zM8.925 11.55h-2.1v2.1h2.1v-2.1zm0 4.2h-2.1v2.1h2.1v-2.1zm2.1-2.1h-2.1v2.1h2.1v-2.1zm-4.2 0h-2.1v2.1h2.1v-2.1zM2.1 6.3H0v2.1h2.1V6.3zm9.45-5.25h-2.1v2.1h2.1v-2.1zM31.5 28.875L21.252 16.154h20.495L31.5 28.875z" fill="#C40B0B"/><path d="M41.747 16.154H21.252l3.534-5.654h13.428l3.533 5.654z" fill="#E30B0B"/><path d="M36.147 16.154l2.066-5.654H24.785l2.066 5.654h9.296z" fill="#C40B0B"/><path d="M36.094 16.154L31.5 10.5l-4.594 5.654h9.188z" fill="#FE6F6F"/><path d="M26.85 16.154l4.65 12.721 4.648-12.721h-9.296z" fill="#CB465F"/></g><defs><clipPath id="clip0"><path fill="#fff" d="M0 0h63v63H0z"/></clipPath></defs></svg>
